src/lib/packages/icons/src/assets/line/bitcoin-circle.svg

<svg width="24" height="24" viewBox="0 0 24 24" fill="none" xmlns="http://www.w3.org/2000/svg">
<path d="M12 1.25C6.072 1.25 1.25 6.072 1.25 12C1.25 17.928 6.072 22.75 12 22.75C17.928 22.75 22.75 17.928 22.75 12C22.75 6.072 17.928 1.25 12 1.25ZM12 21.25C6.899 21.25 2.75 17.101 2.75 12C2.75 6.899 6.899 2.75 12 2.75C17.101 2.75 21.25 6.899 21.25 12C21.25 17.101 17.101 21.25 12 21.25ZM14.922 11.745C15.26 11.308 15.469 10.766 15.469 10.17C15.469 8.92004 14.583 7.87599 13.41 7.64099V7C13.41 6.586 13.074 6.25 12.66 6.25C12.246 6.25 11.91 6.586 11.91 7V7.58997H11.319V7C11.319 6.586 10.983 6.25 10.569 6.25C10.155 6.25 9.819 6.586 9.819 7V7.58997H8.76501C8.35101 7.58997 8.01501 7.92597 8.01501 8.33997C8.01501 8.75397 8.35101 9.08997 8.76501 9.08997H9.29599V14.91H8.76501C8.35101 14.91 8.01501 15.246 8.01501 15.66C8.01501 16.074 8.35101 16.41 8.76501 16.41H9.819V17C9.819 17.414 10.155 17.75 10.569 17.75C10.983 17.75 11.319 17.414 11.319 17V16.41H11.91V17C11.91 17.414 12.246 17.75 12.66 17.75C13.074 17.75 13.41 17.414 13.41 17V16.41H13.427C14.838 16.41 15.985 15.253 15.985 13.83C15.985 12.971 15.563 12.215 14.922 11.745ZM13.969 10.17C13.969 10.766 13.494 11.25 12.911 11.25H10.796V9.08997H12.911C13.494 9.08997 13.969 9.57404 13.969 10.17ZM13.427 14.91H10.796V12.75H12.911H13.428C14.011 12.75 14.486 13.234 14.486 13.83C14.486 14.426 14.011 14.91 13.427 14.91Z" fill="currentColor"/>
</svg>

<svg xmlns="http://www.w3.org/2000/svg" width="24" height="24" fill="none"><path fill="currentColor" d="M12 1.25C6.072 1.25 1.25 6.072 1.25 12S6.072 22.75 12 22.75 22.75 17.928 22.75 12 17.928 1.25 12 1.25Zm0 20c-5.101 0-9.25-4.149-9.25-9.25S6.899 2.75 12 2.75s9.25 4.149 9.25 9.25-4.149 9.25-9.25 9.25Zm2.922-9.505c.338-.437.547-.979.547-1.575 0-1.25-.886-2.294-2.059-2.529V7a.75.75 0 0 0-1.5 0v.59h-.591V7a.75.75 0 0 0-1.5 0v.59H8.765a.75.75 0 0 0 0 1.5h.531v5.82h-.531a.75.75 0 0 0 0 1.5h1.054V17a.75.75 0 0 0 1.5 0v-.59h.591V17a.75.75 0 0 0 1.5 0v-.59h.017c1.411 0 2.558-1.157 2.558-2.58 0-.859-.422-1.615-1.063-2.085Zm-.953-1.575a1.07 1.07 0 0 1-1.058 1.08h-2.115V9.09h2.115a1.07 1.07 0 0 1 1.058 1.08Zm-.542 4.74h-2.631v-2.16h2.632a1.07 1.07 0 0 1 1.058 1.08 1.07 1.07 0 0 1-1.059 1.08Z"/></svg>
